X:1
T:Banish Misfortune
L:1/8
Q:1/4=160
M:6/8
K:G
"D" D6 |"D" D6 |"D" D6 |"D" D6 |
"Am" A6"C" |"Em" E6 |"D" D6 |"D" d6 ::
"D" D z D4 |"D" z6 |"Am" A z A4 |"C" z6 |
"D" D z D4 |"C"C z C4 |"Am" A6"C" |"D" D6 ::
"D" z2 D4 |"D" z2 D4 |"D" z2 D4 |"D" z2 D4 |
"Am" C6"C" |"Em" C6 |"C" G3"Am" A3 |"D" D6 ::
